X:77
T:Sorglåt
R:Polska
C:Olof Boberg
O:Gotland
D:Gotland i ord och ton (MXLP 01)
B:Gutalåtar nr 77
M:C
L:1/8
K:Gm
D|G2 (GA) (Bc/B/) (AG)|A2 (A^F) D3 D|G2 (GA) (Bc/B/) (AG)|d6 z D|
G2 (GA) (Bc/B/) (AG)|A2 {/A}(A^F) D2 (dc)|B2 (AG) D2 (^FA)|G2 {/A}G>^F G3 =F|
+mf+B2 (Bc) (de/d/) cB|c2 (cA) ^F2 +p+(dc)|B2 (BA) G2 (GB)|A2 (A^F) D3 D|
G2 (GA) B2 (cd)|e2 (ed) c2 (eg)|d2 (BG) D2 (^FA)|G2 {/A}(G>^F) G3|]

